src/assets/img/providers/betgames-g.svg

<svg width="132" height="22" viewBox="0 0 132 22" fill="none" xmlns="http://www.w3.org/2000/svg">
<g clip-path="url(#clip0_4052_8130)">
<path fill-rule="evenodd" clip-rule="evenodd" d="M47.3971 6.39525C48.5132 5.38692 49.8079 5.03804 51.281 5.34863C52.7175 5.65167 53.6584 6.55755 54.1038 8.06628C54.6495 9.90824 54.6333 11.789 54.0553 13.7086C53.4568 15.7016 51.7162 16.8048 49.6731 17.0523C47.9465 17.2604 46.2097 17.0329 44.4626 16.3697C44.4337 16.3588 44.4087 16.3393 44.3911 16.3139C44.3734 16.2885 44.364 16.2583 44.364 16.2273V1.69437C44.364 1.63397 44.3931 1.59623 44.4513 1.58113L47.2612 0.825691C47.3248 0.808436 47.3566 0.832701 47.3566 0.898485V6.37745C47.3567 6.38211 47.3581 6.38666 47.3606 6.39055C47.3632 6.39443 47.3668 6.3975 47.3711 6.39937C47.3754 6.40125 47.3801 6.40186 47.3847 6.40113C47.3893 6.4004 47.3936 6.39836 47.3971 6.39525ZM51.3797 11.9713C51.5059 11.0007 51.4428 10.1061 51.1904 9.2876C50.9769 8.59633 50.5256 8.20324 49.8365 8.10834C48.7623 7.95951 47.9961 8.33804 47.5378 9.24392C47.403 9.50922 47.3383 9.81765 47.3437 10.1692C47.3631 11.5927 47.3652 12.9365 47.3501 14.2004C47.3502 14.2279 47.3584 14.2548 47.3737 14.2773C47.389 14.2998 47.4107 14.317 47.4359 14.3266C48.1768 14.6059 48.895 14.6701 49.5906 14.5191C50.8394 14.2473 51.2309 13.1069 51.3797 11.9713Z" fill="#00AB55"/>
<path d="M69.7999 7.91748C69.8009 9.48983 69.8015 11.0692 69.8015 12.6556C69.8015 14.0662 70.3822 14.6614 71.8446 14.2085C71.9114 14.188 71.9449 14.2128 71.9449 14.2829V16.7078C71.9449 16.7789 71.9109 16.8242 71.8429 16.8437C70.7591 17.151 69.8295 17.2103 69.0541 17.0216C67.5788 16.6614 66.8423 15.6612 66.8444 14.0209C66.8498 10.0792 66.8509 6.22542 66.8476 2.45954C66.8477 2.4391 66.8546 2.41926 66.8672 2.40316C66.8798 2.38705 66.8974 2.37559 66.9172 2.37057L69.6898 1.6216C69.7643 1.60219 69.8015 1.63076 69.8015 1.70733V5.17718C69.8015 5.23111 69.8284 5.25807 69.8824 5.25807H71.864C71.9179 5.25807 71.9449 5.28503 71.9449 5.33895V7.76542C71.9449 7.79238 71.9314 7.80586 71.9044 7.80586H69.9115C69.8371 7.80586 69.7999 7.84307 69.7999 7.91748Z" fill="#00AB55"/>
<path fill-rule="evenodd" clip-rule="evenodd" d="M26.3418 7.69266C26.2577 7.3663 26.1518 7.04521 26.0247 6.73178C25.5369 5.52673 24.7529 4.46428 23.7454 3.64284C22.7379 2.82139 21.5394 2.26752 20.261 2.03252C19.1859 1.83464 18.081 1.86729 17.0194 2.12831C15.9578 2.38932 14.9636 2.87275 14.1026 3.54663C12.6466 4.6854 11.6469 6.3084 11.2847 8.1213C10.9226 9.93821 11.2251 11.8246 12.1372 13.4369C12.7843 14.5805 13.7125 15.5399 14.8338 16.2241C15.8883 16.8685 17.0819 17.2507 18.3144 17.3385C19.547 17.4263 20.7826 17.2173 21.9175 16.7288C23.3263 16.1225 24.523 15.1106 25.355 13.8219C25.9343 12.9244 26.3212 11.9163 26.491 10.8613C26.6609 9.80628 26.61 8.72735 26.3418 7.69266ZM15.8351 8.08251C15.2183 9.37446 15.3342 10.5888 16.1829 11.7254C17.1842 13.0664 19.1432 13.4175 20.5813 12.552C22.186 11.5879 22.7328 9.6128 21.8269 7.96766C20.4147 5.59134 17.1939 5.67384 15.8351 8.08251Z" fill="#00AB55"/>
<path d="M5.43528 5.50234L8.22573 11.7659C8.48779 12.3461 8.74608 12.9269 9.00059 13.5082C9.24971 14.0797 9.36833 14.5267 9.35647 14.8492C9.28853 16.7176 6.94456 17.5814 5.69573 16.1886C5.54475 16.0214 5.36358 15.7001 5.1522 15.2245C4.66475 14.1342 4.15034 12.9733 3.60897 11.7417L0.980307 5.82265C0.45619 4.95344 0.426508 4.13435 0.891312 3.36543C1.55455 2.2719 3.14469 2.06484 4.12014 2.9594C4.32288 3.14489 4.55421 3.5245 4.81411 4.09822C5.0244 4.56519 5.23146 5.03322 5.43528 5.50234Z" fill="#00AB55"/>
<path d="M32.4176 3.6955C33.0366 5.07694 33.6524 6.46053 34.265 7.84629L36.8128 13.5727C37.4631 14.7294 37.1379 16.1174 35.9085 16.682C35.124 17.0411 34.1437 16.8648 33.5532 16.2614C33.3742 16.0791 33.186 15.7696 32.9887 15.3329C32.7266 14.7516 32.4489 14.1272 32.1556 13.4596L29.6369 7.80271C29.2853 7.02624 28.9246 6.21472 28.5547 5.36815C27.8349 3.71815 29.2713 2.06006 30.9601 2.45639C31.6309 2.61276 32.1168 3.0258 32.4176 3.6955Z" fill="#00AB55"/>
<path fill-rule="evenodd" clip-rule="evenodd" d="M80.7028 15.9831C79.6804 16.9408 78.4208 17.2896 76.924 17.0297C73.6563 16.4619 73.3813 12.3628 73.7987 9.79885C74.1157 7.85444 74.9973 6.45679 76.8285 5.73047C77.4389 5.48782 78.0951 5.33684 78.7972 5.27753C80.4019 5.14164 82.0212 5.37566 83.655 5.97959C83.7208 6.00439 83.7537 6.05238 83.7537 6.12356V16.9213C83.7537 19.7296 82.1587 21.3941 79.3763 21.5769C78.0515 21.6627 76.6263 21.598 75.3759 21.1677C75.3263 21.1504 75.3015 21.1154 75.3015 21.0625V18.6425C75.3017 18.628 75.3054 18.6137 75.3123 18.601C75.3193 18.5883 75.3292 18.5775 75.3413 18.5696C75.3533 18.5618 75.3671 18.5571 75.3813 18.556C75.3955 18.5548 75.4098 18.5574 75.4228 18.5633C76.1788 18.904 76.9617 19.0933 77.7716 19.1311C79.0657 19.1925 80.3097 19.0858 80.706 17.7124C80.8154 17.3319 80.81 16.9437 80.8047 16.5552C80.8023 16.3805 80.7999 16.2058 80.8079 16.0316C80.8133 15.9292 80.7783 15.913 80.7028 15.9831ZM80.6931 8.30253C79.9926 8.02753 79.132 7.95797 78.4203 8.14561C76.759 8.58076 76.6101 10.894 76.7412 12.3515C76.7854 12.8357 76.9008 13.2816 77.0873 13.6893C77.5726 14.744 79.2518 14.8055 80.0396 14.1196C80.4731 13.7411 80.8128 13.1587 80.8079 12.5715C80.7993 11.2979 80.7977 9.92934 80.8031 8.46591C80.8035 8.43072 80.7932 8.39624 80.7736 8.36705C80.7539 8.33786 80.7259 8.31535 80.6931 8.30253Z" fill="#00AB55"/>
<path fill-rule="evenodd" clip-rule="evenodd" d="M90.6982 8.50147C90.8276 8.85627 90.8713 9.24181 90.8293 9.65808C90.8228 9.71524 90.791 9.74436 90.7338 9.74544C88.0291 9.80367 84.6062 10.8276 84.8618 14.215C84.9286 15.0928 85.2683 15.7987 85.8809 16.3325C87.2575 17.5312 89.3605 17.2384 90.8859 16.3826C90.8977 16.3762 90.911 16.3729 90.9244 16.3732C90.9379 16.3734 90.951 16.3771 90.9626 16.384C90.9742 16.3908 90.9838 16.4006 90.9905 16.4122C90.9972 16.4239 91.0007 16.4371 91.0007 16.4506L90.9894 17.0232C90.9883 17.1063 91.0288 17.1478 91.1107 17.1478H93.5485C93.6143 17.1478 93.6488 17.1144 93.6521 17.0475C93.7577 14.1196 93.7669 11.4024 93.6796 8.89617C93.6601 8.33755 93.6321 7.96549 93.5954 7.78C92.8966 4.24058 87.9806 5.13353 85.614 5.9197C85.5906 5.92722 85.5701 5.94207 85.5556 5.96212C85.5411 5.98217 85.5332 6.0064 85.5331 6.03132V8.38176C85.5331 8.39295 85.5358 8.40397 85.541 8.41385C85.5462 8.42373 85.5538 8.43217 85.5631 8.43841C85.5724 8.44465 85.5831 8.44851 85.5942 8.44963C85.6053 8.45075 85.6166 8.44911 85.6269 8.44485C86.8175 7.96387 87.973 7.72284 89.0935 7.72176C89.6532 7.72176 90.4815 7.90779 90.6982 8.50147ZM90.9619 12.8788C91.0201 13.6698 90.0415 14.3897 89.4284 14.4981C88.5257 14.655 87.4371 14.1648 87.6085 13.0875C87.78 12.0182 90.1256 12.015 90.8794 12.0603C90.9398 12.0646 90.9673 12.097 90.9619 12.1573C90.9425 12.3827 90.9425 12.6232 90.9619 12.8788Z" fill="#00AB55"/>
<path d="M98.2801 6.83044C99.3079 5.62044 100.586 5.09848 102.116 5.26455C103.036 5.36323 104.039 6.02 104.333 6.9825C104.362 7.07632 104.403 7.08225 104.456 7.00029C105.225 5.83774 106.331 5.24892 107.774 5.23382C109.102 5.21926 110.275 5.63985 110.786 6.96146C111.06 7.67107 111.2 8.53651 111.205 9.55779C111.217 11.9411 111.219 14.4425 111.21 17.0621C111.21 17.1192 111.181 17.1478 111.124 17.1478H108.376C108.308 17.1478 108.273 17.1138 108.272 17.0459C108.243 14.8642 108.235 12.7548 108.248 10.7176C108.253 9.96705 108.251 8.92529 107.818 8.29764C107.603 7.98544 107.163 7.89 106.799 7.87867C106.005 7.85387 105.413 8.20328 105.022 8.92691C104.883 9.18357 104.814 9.48068 104.815 9.81823C104.823 12.1681 104.825 14.5827 104.822 17.0621C104.822 17.1192 104.793 17.1478 104.736 17.1478H101.946C101.876 17.1478 101.84 17.1127 101.839 17.0426C101.817 14.9354 101.824 13.0276 101.858 11.3194C101.878 10.3251 101.802 9.46504 101.632 8.73926C101.48 8.0922 100.889 7.85117 100.265 7.87544C99.5284 7.90348 98.9639 8.27769 98.5713 8.99808C98.4484 9.22347 98.3875 9.4521 98.3885 9.68396C98.3928 12.214 98.395 14.6728 98.395 17.0604C98.395 17.1187 98.3659 17.1478 98.3076 17.1478H95.5625C95.4816 17.1478 95.4412 17.1073 95.4412 17.0265V6.03779C95.4412 6.01819 95.4478 5.99916 95.4598 5.98366C95.4718 5.96815 95.4885 5.95704 95.5075 5.95205L98.0893 5.25485C98.1572 5.23651 98.1912 5.26294 98.1912 5.33411V6.79808C98.1923 6.88975 98.2219 6.90053 98.2801 6.83044Z" fill="#00AB55"/>
<path d="M126.441 12.2183C127.085 12.4446 127.73 12.6712 128.247 13.0972C128.529 13.3285 128.577 13.7507 128.436 14.0759C127.796 15.5512 124.779 14.3395 123.834 13.83C123.778 13.7998 123.75 13.8165 123.75 13.8801V16.3438C123.75 16.4128 123.782 16.4603 123.847 16.4862C126.128 17.4001 130.327 17.7415 131.301 14.7423C131.574 13.9022 131.558 13.0778 131.253 12.269C130.827 11.1463 129.989 10.4944 128.876 10.1369C128.803 10.1135 128.729 10.09 128.655 10.0664L128.654 10.0663C127.966 9.84852 127.22 9.61244 126.671 9.17764C126.269 8.85734 126.219 8.48421 126.519 8.05823C126.79 7.67484 127.462 7.58425 127.883 7.61175C128.666 7.66136 129.547 7.8943 130.526 8.31058C130.592 8.33969 130.625 8.31813 130.625 8.24587V5.98278C130.625 5.91592 130.593 5.87063 130.53 5.8469C129.116 5.31308 127.484 5.03646 126.003 5.35837C124.295 5.72881 123.323 6.96793 123.365 8.72631C123.396 10.0323 123.969 11.0061 125.085 11.6478C125.503 11.889 125.972 12.0536 126.441 12.2183Z" fill="#00AB55"/>
<path fill-rule="evenodd" clip-rule="evenodd" d="M58.5928 12.0264C58.6057 13.7168 60.0826 14.6955 61.6453 14.689C62.7625 14.6836 63.8221 14.4884 64.824 14.1034C64.88 14.0808 64.9081 14.0996 64.9081 14.16V16.47C64.9081 16.5423 64.873 16.5887 64.8029 16.6092C63.1616 17.0837 61.6226 17.2352 60.1862 17.0637C57.9668 16.7984 56.1582 15.1517 55.7587 12.9015C55.2734 10.1661 55.77 6.54901 58.8775 5.57357C61.2991 4.81328 64.494 5.29372 65.2785 8.04534C65.5668 9.05514 65.5448 10.1533 65.5233 11.2251V11.2255C65.5191 11.4344 65.5149 11.6424 65.5131 11.8484C65.512 11.9034 65.484 11.9309 65.429 11.9309H58.6882C58.6235 11.9309 58.5917 11.9627 58.5928 12.0264ZM60.741 7.62151C59.3919 7.72828 58.7788 8.77328 58.6672 10.014C58.6607 10.0787 58.6904 10.1111 58.7562 10.1111H62.6757C62.7275 10.1111 62.7555 10.0857 62.7598 10.035C62.8941 8.70048 62.2503 7.50343 60.741 7.62151Z" fill="#00AB55"/>
<path fill-rule="evenodd" clip-rule="evenodd" d="M118.143 14.655C116.514 14.4598 115.616 13.5809 115.451 12.0182C115.446 11.96 115.473 11.9309 115.531 11.9309H122.284C122.345 11.9309 122.375 11.9007 122.375 11.8403C122.377 11.1329 122.377 10.3817 122.375 9.58692C122.372 7.62418 121.591 6.3155 120.033 5.66089C118.747 5.1206 117.168 5.13839 115.836 5.55251C113.706 6.21413 112.713 8.07766 112.532 10.2049C112.449 11.1949 112.497 12.1369 112.676 13.0309C113.135 15.328 115.092 16.9537 117.412 17.1041C118.842 17.1969 120.267 17.0324 121.686 16.6107C121.741 16.5935 121.768 16.5563 121.768 16.4991V14.1859C121.768 14.118 121.737 14.0953 121.673 14.1179C120.304 14.5935 119.128 14.7726 118.143 14.655ZM115.628 10.111C115.564 10.111 115.536 10.0792 115.544 10.0156C115.707 8.67133 116.411 7.54222 117.931 7.61177C119.242 7.67163 119.785 8.83148 119.664 10.014C119.656 10.0787 119.62 10.111 119.555 10.111H115.628Z" fill="#00AB55"/>
</g>
<defs>
<clipPath id="clip0_4052_8130">
<rect width="131.676" height="22" fill="white" transform="translate(0.161743 0.000976562)"/>
</clipPath>
</defs>
</svg>

<svg width="132" height="22" fill="none" xmlns="http://www.w3.org/2000/svg"><g clip-path="url(#a)" fill="#00AB55"><path fill-rule="evenodd" clip-rule="evenodd" d="M47.397 6.395c1.116-1.008 2.41-1.357 3.884-1.046 1.437.303 2.377 1.209 2.823 2.717.546 1.842.53 3.723-.049 5.643-.598 1.993-2.339 3.096-4.382 3.343-1.727.208-3.463-.02-5.21-.682a.153.153 0 0 1-.099-.143V1.694c0-.06.03-.098.087-.113l2.81-.755c.064-.018.096.007.096.072v5.48a.024.024 0 0 0 .04.018Zm3.983 5.576c.126-.97.063-1.865-.19-2.683-.213-.692-.664-1.085-1.353-1.18-1.075-.148-1.84.23-2.3 1.136-.134.265-.199.574-.193.925.02 1.424.021 2.768.006 4.031 0 .028.008.055.024.077.015.023.037.04.062.05.74.279 1.459.343 2.155.192 1.248-.272 1.64-1.412 1.789-2.548Z"/><path d="m69.8 7.917.002 4.739c0 1.41.58 2.005 2.043 1.553.066-.021.1.004.1.074v2.425c0 .07-.034.116-.102.136-1.084.307-2.014.366-2.789.178-1.475-.36-2.212-1.36-2.21-3.001.006-3.942.007-7.796.004-11.561a.092.092 0 0 1 .07-.09l2.772-.748c.074-.02.112.009.112.085v3.47c0 .054.026.081.08.081h1.982c.054 0 .08.027.08.08v2.427c0 .027-.013.04-.04.04h-1.992c-.075 0-.112.038-.112.112Z"/><path fill-rule="evenodd" clip-rule="evenodd" d="M26.342 7.693a7.726 7.726 0 0 0-15.057.429 7.728 7.728 0 1 0 15.057-.43Zm-10.507.39c-.617 1.291-.5 2.506.348 3.642 1.001 1.341 2.96 1.693 4.398.827 1.605-.964 2.152-2.94 1.246-4.584-1.412-2.377-4.633-2.294-5.992.115Z"/><path d="m5.435 5.502 2.79 6.264a165 165 0 0 1 .776 1.742c.249.572.367 1.019.355 1.341-.067 1.869-2.411 2.732-3.66 1.34-.151-.168-.332-.489-.544-.964a608.288 608.288 0 0 1-1.543-3.483L.98 5.822C.456 4.954.427 4.135.891 3.366c.664-1.093 2.254-1.3 3.23-.406.202.186.433.566.693 1.14.21.466.417.934.621 1.403ZM32.418 3.696a904.92 904.92 0 0 1 1.847 4.15l2.548 5.727c.65 1.156.325 2.544-.905 3.109-.784.36-1.764.183-2.355-.42-.179-.183-.367-.492-.564-.93a213.34 213.34 0 0 1-.833-1.872l-2.52-5.657c-.35-.777-.711-1.588-1.081-2.435a2.097 2.097 0 0 1 2.405-2.912c.67.157 1.157.57 1.458 1.24Z"/><path fill-rule="evenodd" clip-rule="evenodd" d="M80.703 15.983c-1.023.958-2.282 1.307-3.779 1.047-3.268-.568-3.543-4.667-3.125-7.231.317-1.945 1.198-3.342 3.03-4.069a6.863 6.863 0 0 1 1.968-.452c1.605-.136 3.224.098 4.858.702a.141.141 0 0 1 .099.144V16.92c0 2.809-1.595 4.473-4.378 4.656-1.325.086-2.75.021-4-.41-.05-.017-.075-.052-.075-.105v-2.42a.09.09 0 0 1 .04-.072.086.086 0 0 1 .082-.007c.756.341 1.539.53 2.349.568 1.294.061 2.538-.045 2.934-1.419.11-.38.104-.768.099-1.157-.003-.174-.005-.35.003-.523.005-.103-.03-.119-.105-.049Zm-.01-7.68c-.7-.275-1.561-.345-2.273-.157-1.661.435-1.81 2.748-1.679 4.205.044.485.16.93.346 1.338.486 1.055 2.165 1.117 2.953.43.433-.378.773-.96.768-1.547-.009-1.274-.01-2.643-.005-4.106a.174.174 0 0 0-.11-.163ZM90.698 8.501c.13.355.173.74.131 1.157-.006.057-.038.086-.095.087-2.705.059-6.128 1.083-5.872 4.47.067.878.406 1.584 1.019 2.117 1.376 1.2 3.48.906 5.005.05a.077.077 0 0 1 .077.002.078.078 0 0 1 .038.067l-.012.572c0 .083.04.125.122.125h2.438c.065 0 .1-.034.103-.1.106-2.928.115-5.646.028-8.152-.02-.558-.048-.93-.085-1.116-.698-3.54-5.614-2.646-7.981-1.86a.116.116 0 0 0-.08.111v2.35a.069.069 0 0 0 .03.057.068.068 0 0 0 .063.007c1.19-.481 2.346-.722 3.467-.723.56 0 1.388.186 1.604.78Zm.264 4.378c.058.79-.92 1.51-1.534 1.62-.902.156-1.99-.334-1.82-1.412.172-1.069 2.518-1.072 3.271-1.027.06.005.088.037.083.097-.02.226-.02.466 0 .722Z"/><path d="M98.28 6.83c1.028-1.21 2.306-1.732 3.836-1.565.92.098 1.923.755 2.217 1.718.029.093.07.1.123.017.769-1.162 1.875-1.751 3.318-1.766 1.328-.015 2.501.406 3.012 1.727.274.71.414 1.576.419 2.597.012 2.383.014 4.885.005 7.504 0 .057-.029.086-.086.086h-2.748c-.068 0-.103-.034-.104-.102a321.958 321.958 0 0 1-.024-6.328c.005-.75.003-1.793-.43-2.42-.215-.313-.655-.408-1.019-.42-.794-.024-1.386.325-1.777 1.049a1.83 1.83 0 0 0-.207.891c.008 2.35.01 4.765.007 7.244 0 .057-.029.086-.086.086h-2.79c-.07 0-.106-.035-.107-.105-.022-2.108-.015-4.015.019-5.724.02-.994-.056-1.854-.226-2.58-.152-.647-.743-.888-1.367-.864-.737.028-1.301.403-1.694 1.123a1.405 1.405 0 0 0-.183.686c.005 2.53.007 4.989.007 7.376 0 .059-.03.088-.087.088h-2.746c-.08 0-.12-.04-.12-.122V6.038a.088.088 0 0 1 .066-.086l2.581-.697c.068-.018.102.008.102.08v1.463c.001.092.03.103.09.032ZM126.441 12.218c.644.227 1.289.453 1.806.88.282.23.33.653.189.978-.64 1.475-3.657.263-4.602-.246-.056-.03-.084-.014-.084.05v2.464c0 .069.032.116.097.142 2.281.914 6.48 1.255 7.454-1.744a3.634 3.634 0 0 0-.048-2.473c-.426-1.123-1.264-1.775-2.377-2.132l-.221-.07h-.001c-.688-.218-1.434-.455-1.983-.89-.402-.32-.452-.693-.152-1.119.271-.383.943-.474 1.364-.446.783.05 1.664.282 2.643.699.066.029.099.007.099-.065V5.983a.134.134 0 0 0-.095-.136c-1.414-.534-3.046-.81-4.527-.489-1.708.37-2.68 1.61-2.638 3.368.031 1.306.604 2.28 1.72 2.922.418.241.887.406 1.356.57Z"/><path fill-rule="evenodd" clip-rule="evenodd" d="M58.593 12.026c.013 1.69 1.49 2.67 3.052 2.663a8.907 8.907 0 0 0 3.179-.586c.056-.022.084-.003.084.057v2.31c0 .072-.035.119-.105.14-1.641.474-3.18.625-4.617.454-2.22-.266-4.028-1.912-4.427-4.162-.486-2.736.011-6.353 3.118-7.328 2.422-.76 5.617-.28 6.401 2.471.289 1.01.267 2.108.245 3.18-.004.21-.008.417-.01.623-.001.055-.029.083-.084.083h-6.74c-.066 0-.097.032-.096.095Zm2.148-4.404c-1.35.106-1.962 1.151-2.074 2.392-.006.065.023.097.09.097h3.919c.051 0 .08-.025.084-.076.134-1.335-.51-2.532-2.019-2.413ZM118.143 14.655c-1.629-.195-2.527-1.074-2.692-2.637-.005-.058.022-.087.08-.087h6.753c.061 0 .091-.03.091-.09.002-.708.002-1.46 0-2.254-.003-1.963-.784-3.271-2.342-3.926-1.286-.54-2.865-.523-4.197-.108-2.13.661-3.123 2.525-3.304 4.652-.083.99-.035 1.932.144 2.826.459 2.297 2.416 3.923 4.736 4.073 1.43.093 2.855-.072 4.274-.493.055-.018.082-.055.082-.112v-2.313c0-.068-.031-.09-.095-.068-1.369.476-2.545.655-3.53.537Zm-2.515-4.544c-.064 0-.092-.032-.084-.095.163-1.345.867-2.474 2.387-2.404 1.311.06 1.854 1.22 1.733 2.402-.008.065-.044.097-.109.097h-3.927Z"/></g><defs><clipPath id="a"><path fill="#fff" transform="translate(.162 .001)" d="M0 0h131.676v22H0z"/></clipPath></defs></svg>
